X:1
T:Title
%%score { ( 1 3 ) | 2 }
L:1/8
M:4/4
K:A
V:1 treble nm="Grand Piano"
V:3 treble 
V:2 bass 
V:1
 z4 z2[Q:1/4=110] [CA][DB] | [Ec]2 [CE]2 [CE]2 [CE]2 | [DF]2 [FA]2 [FA]2 [FB]2 | A2 A2 A2 [GB]2 | %4
 c6 AB | c2 [CE]2 [CE]2 [CE]2 | [DF]2 [FA]2 [FA]2 [FB]2 | c2 c2 c2 B2 | [CA]6 [CA][CA] | %9
 G2 A2 B2 d2 | [Ec]4 [CA]2 [DB][Ec] | [Fd]2 [Ec]2 [EB]2 [EA]2 | B6 cd | e2 c2 [CA]2 [CE]2 | %14
 [DF]2 [FA]4 [FB]2 | z4 z2 B2 | [EA]6 z2 |[M:1/8] e |[M:4/4] e4 c2 z e | e4 c2 z2 | %20
 [GB]2 [GB]2 [GB][FA] [GB]2 | c2 c2 c2 z e | e4 c2 z e | e4 c2 [CEA][CEA] | %24
 [DEB]2 [CEA]2 [EAc]3 [DEB] |[M:3/4] [CEA]6 |] %26
V:2
 z4 z2 [A,,A,][A,,A,] | [A,,A,]2 [A,,A,]2 [A,,A,]2 [A,,A,]2 | [D,A,]2 [D,D]2 [D,D]2 [D,D]2 | %3
 [E,CE]2 [E,CE]2 [E,CE]2 [E,E]2 | [A,EA]6 [A,CE][K:bass][A,DE] | %5
 [A,E]2 [A,,A,]2 [A,,A,]2 [A,,A,]2 | [D,A,]2 [D,D]2 [D,D]2 [D,A,]2 | %7
 [E,A,E]2 [E,A,E]2 [E,G,E]2 [E,G,D]2 | [A,,A,]6 [A,,A,][A,,A,] | %9
 [E,B,E]2 [E,CE]2 [E,G,E]2 [E,B,E]2 | [A,,A,]4 [A,,A,]2 [A,,A,][A,,A,] | %11
 [A,,A,]2 [A,,A,]2 [B,,G,]2 [C,A,]2 | [E,G,E]6 [A,E][A,B,E] | [A,CE]2 [A,E]2 [A,,A,]2 [A,,A,]2 | %14
 [D,A,]2 [D,A,]4 [D,A,]2 | [E,A,E]2 [E,CE]2 [E,A,E]2 .[E,G,E]2 | A,,6 z2 | %17
[M:1/8][K:treble] [A,CA] |[M:4/4] [A,CA]4 [A,EA]2 z [A,CA] | [A,CA]4 [A,EA]2 z2 | %20
 [E,E]2 [E,E]2 [E,E]2 [E,E]2 | [A,EA]2 [A,EA]2 [A,EA]2 z [A,CA] | [A,CA]4 [A,EA]2 z [A,CA] | %23
 [A,CA]4 [A,EA]2[K:bass] A,,A,, | E,2 E,2 E,3 E, |[M:3/4] A,,6 |] %26
V:3
 x8 | x8 | x8 | x8 | x8 | x8 | x8 | x8 | x8 | x8 | x8 | x8 | x8 | x8 | x8 | c2 A2 c2 z D | x8 | %17
[M:1/8] x |[M:4/4] x8 | x8 | x8 | x8 | x8 | x8 | x8 |[M:3/4] x6 |] %26

